www/assets/icons/swipe_vertical.svg

<svg width="24" height="24" viewBox="0 0 24 24" xmlns="http://www.w3.org/2000/svg" fill='currentColor'><path d="M1.22229 3.44873H3.24229C1.35229 5.76873 0.22229 8.72873 0.22229 11.9487C0.22229 15.1687 1.35229 18.1287 3.24229 20.4487H1.22229V21.9487H6.22229V16.9487H4.72229V19.8587C2.86229 17.7487 1.72229 14.9787 1.72229 11.9487C1.72229 8.91873 2.86229 6.15873 4.72229 4.03873V6.94873H6.22229V1.94873H1.22229V3.44873ZM14.0723 11.5687L11.3923 6.19873C11.0223 5.45873 10.1223 5.15873 9.38229 5.52873C8.63229 5.90873 8.33229 6.80873 8.70229 7.54873L13.5123 17.1487L10.2723 17.9487C9.94229 18.0387 9.68229 18.2787 9.57229 18.6087L9.22229 19.7287L15.4123 21.9787C15.9123 22.1487 16.6923 21.9987 17.1623 21.7587L22.6723 19.0087C23.5623 18.5587 23.9923 17.5287 23.6723 16.5887L22.2423 12.3187C21.9723 11.4987 21.2023 10.9487 20.3423 10.9487H15.7823C15.4723 10.9487 15.1623 11.0187 14.8923 11.1587L14.0723 11.5687Z"/></svg>

<svg xmlns="http://www.w3.org/2000/svg" width="24" height="24" viewBox="0 0 24 24" fill='currentColor'><path d="M1.222 3.449h2.02a13.4 13.4 0 0 0-3.02 8.5c0 3.22 1.13 6.18 3.02 8.5h-2.02v1.5h5v-5h-1.5v2.91c-1.86-2.11-3-4.88-3-7.91s1.14-5.79 3-7.91v2.91h1.5v-5h-5zm12.85 8.12-2.68-5.37a1.5 1.5 0 0 0-2.01-.67c-.75.38-1.05 1.28-.68 2.02l4.81 9.6-3.24.8c-.33.09-.59.33-.7.66l-.35 1.12 6.19 2.25c.5.17 1.28.02 1.75-.22l5.51-2.75c.89-.45 1.32-1.48 1-2.42l-1.43-4.27a2 2 0 0 0-1.9-1.37h-4.56c-.31 0-.62.07-.89.21z"/></svg>
